X: 23
T: Missa Ave sanctissima Maria / Sanctus
N: Derived from Rue1005d-Missa_Ave_sanctissima_Maria-Sanctus.krn
C: Pierre de la Rue
%%abc-version 2.0
%%abcx-abcm2ps-target-version 5.9.1 (29 Sep 2008)
%%abc-creator hum2abc beta
%%abcx-conversion-date 2019/02/17 08:01:10
%%abc-edited-by Jesse Rodin
%%abc-edited-by Chris Gage 01-02-2013
%%abcx-initial-encoding-date 2013/07/19/
%%humdrum-veritas 1848618188
%%humdrum-veritas-data 558816012
%%linebreak <none>
%%barnumbers 0
L: 1/4
M: 2/1
Q: 1/2=120
V: 1 clef=treble
V: 2 clef=treble
V: 3 clef=treble-8
V: 4 clef=treble-8
V: 5 clef=bass
V: 6 clef=bass
K: C
[V:1] z8 | 
[V:2] G8- | 
[V:3] z8 | 
[V:4] z4G4- | 
[V:5] z8 | 
[V:6] G,8 | 
[V:1] z8 | 
[V:2] G8 | 
[V:3] z8 | 
[V:4] G4E4 | 
[V:5] z8 | 
[V:6] E,4C,4 | 
[V:1] z8 | 
[V:2] E4C4 | 
[V:3] z8 | 
[V:4] C4G4- | 
[V:5] z8 | 
[V:6] G,4G,2E,2- | 
[V:1] z8 | 
[V:2] G4G2G2- | 
[V:3] z8 | 
[V:4] G4G4 | 
[V:5] z8 | 
[V:6] E,2D,C,B,,2C,B,, | 
[V:1] z8 | 
[V:2] G2E4DC | 
[V:3] z8 | 
[V:4] E4G4- | 
[V:5] z8 | 
[V:6] C,4C,4 | 
[V:1] z8 | 
[V:2] B,2C3B,B,2 | 
[V:3] z8 | 
[V:4] G2F2E2D2 | 
[V:5] z8 | 
[V:6] G,,8 | 
[V:1] z8 | 
[V:2] C4E4 | 
[V:3] z8 | 
[V:4] C8 | 
[V:5] z8 | 
[V:6] z8 | 
[V:1] z8 | 
[V:2] D4G,4 | 
[V:3] z8 | 
[V:4] z2D2E2G2- | 
[V:5] z8 | 
[V:6] G,,8- | 
[V:1] z8 | 
[V:2] z2D2E2G2- | 
[V:3] z8 | 
[V:4] G2F2E2D2 | 
[V:5] z8 | 
[V:6] G,,8 | 
[V:1] z8 | 
[V:2] G2F2E2D2 | 
[V:3] z8 | 
[V:4] C4G4 | 
[V:5] z8 | 
[V:6] C,8 | 
[V:1] z8 | 
[V:2] C4F4- | 
[V:3] z8 | 
[V:4] A8 | 
[V:5] z8 | 
[V:6] A,,4F,,4 | 
[V:1] c8- | 
[V:2] F2EDE4 | 
[V:3] z4c4- | 
[V:4] G8 | 
[V:5] C8 | 
[V:6] C,8 | 
[V:1] c8 | 
[V:2] F8 | 
[V:3] c4A4 | 
[V:4] F8 | 
[V:5] A,4F,4 | 
[V:6] F,,8- | 
[V:1] A4F4 | 
[V:2] F8 | 
[V:3] F4c4- | 
[V:4] F6ED | 
[V:5] C4C2A,2- | 
[V:6] F,,8 | 
[V:1] c4c2c2- | 
[V:2] E4A4 | 
[V:3] c4c4 | 
[V:4] C8 | 
[V:5] A,2G,F,E,2F,E, | 
[V:6] A,,8 | 
[V:1] c2A4GF | 
[V:2] A2F4ED | 
[V:3] A4c4- | 
[V:4] C4C4- | 
[V:5] F,4F,4 | 
[V:6] F,,8 | 
[V:1] E2F3EE2 | 
[V:2] EDCB,C4 | 
[V:3] c2B2A2G2 | 
[V:4] C2D2E4 | 
[V:5] C,8 | 
[V:6] A,,8 | 
[V:1] F4A4 | 
[V:2] D8 | 
[V:3] F8 | 
[V:4] D4D4 | 
[V:5] z8 | 
[V:6] D,8 | 
[V:1] G4C4 | 
[V:2] z8 | 
[V:3] z2G2A2c2- | 
[V:4] E8- | 
[V:5] C,8- | 
[V:6] z8 | 
[V:1] z2G2A2c2- | 
[V:2] z8 | 
[V:3] c2B2A2G2 | 
[V:4] E8 | 
[V:5] C,8 | 
[V:6] z8 | 
[V:1] c2B2A2G2 | 
[V:2] z8 | 
[V:3] F4c4 | 
[V:4] z8 | 
[V:5] F,8 | 
[V:6] z8 | 
[V:1] F4_B4- | 
[V:2] z4F4- | 
[V:3] d8 | 
[V:4] z8 | 
[V:5] D,4_B,,4 | 
[V:6] z8 | 
[V:1] B2AGA4 | 
[V:2] F4F4 | 
[V:3] c8 | 
[V:4] z8 | 
[V:5] F,8 | 
[V:6] z8 | 
[V:1] _B8 | 
[V:2] D3EF2G2- | 
[V:3] _B8 | 
[V:4] z8 | 
[V:5] _B,,8- | 
[V:6] z8 | 
[V:1] _B8 | 
[V:2] G2F2D2E2 | 
[V:3] _B6AG | 
[V:4] z8 | 
[V:5] B,,8 | 
[V:6] z8 | 
[V:1] A4d4 | 
[V:2] F3GA4 | 
[V:3] F8 | 
[V:4] z8 | 
[V:5] D,8 | 
[V:6] z8 | 
[V:1] d2_B4AG | 
[V:2] D8- | 
[V:3] F4F4- | 
[V:4] z8 | 
[V:5] _B,,8 | 
[V:6] z8 | 
[V:1] AG^FEF4 | 
[V:2] D8 | 
[V:3] F2G2A4 | 
[V:4] z8 | 
[V:5] D,8 | 
[V:6] z8 | 
[V:1] G8 | 
[V:2] z4E4 | 
[V:3] G4G4 | 
[V:4] z4G4 | 
[V:5] G,8 | 
[V:6] G,,8 | 
[V:1] z8 | 
[V:2] F4F4- | 
[V:3] A8- | 
[V:4] F6ED | 
[V:5] z8 | 
[V:6] D,4D,2D,2- | 
[V:1] z8 | 
[V:2] F2EDC2E2- | 
[V:3] A8 | 
[V:4] F3GA_BA2- | 
[V:5] z8 | 
[V:6] D,2C,B,,A,,4 | 
[V:1] z8 | 
[V:2] EFG2A4 | 
[V:3] z8 | 
[V:4] A2G4^F2 | 
[V:5] z8 | 
[V:6] C,2B,,2A,,4 | 
[V:1] z4B4- | 
[V:2] D4G4- | 
[V:3] z8 | 
[V:4] G8- | 
[V:5] z8 | 
[V:6] G,,8- | 
[V:1] B4B4 | 
[V:2] G4G4 | 
[V:3] z8 | 
[V:4] G8 | 
[V:5] z8 | 
[V:6] G,,8 | 
[V:1] G3AB2c2- | 
[V:2] E3FG2A2- | 
[V:3] z8 | 
[V:4] z8 | 
[V:5] z8 | 
[V:6] z8 | 
[V:1] c2B2G2A2 | 
[V:2] A2G3EF2 | 
[V:3] z8 | 
[V:4] z8 | 
[V:5] z8 | 
[V:6] z8 | 
[V:1] B3cd4 | 
[V:2] G4D4 | 
[V:3] z8 | 
[V:4] G4G4 | 
[V:5] z8 | 
[V:6] G,,8 | 
[V:1] G8- | 
[V:2] z2D2E2C2- | 
[V:3] z8 | 
[V:4] D2G3FED | 
[V:5] z8 | 
[V:6] G,,4C,4- | 
[V:1] G8 | 
[V:2] CDE3FG2- | 
[V:3] z8 | 
[V:4] C2G3FED | 
[V:5] z8 | 
[V:6] C,4G,,4 | 
[V:1] z4A4 | 
[V:2] GFEDC4 | 
[V:3] z4c4 | 
[V:4] E4E4 | 
[V:5] C,8 | 
[V:6] C,3B,,A,,4 | 
[V:1] _B4B4- | 
[V:2] D8- | 
[V:3] _B6AG | 
[V:4] z4D4 | 
[V:5] G,4G,2G,2- | 
[V:6] G,,8 | 
[V:1] B2AGF2A2- | 
[V:2] D2z2z4 | 
[V:3] _B3cd_ed2- | 
[V:4] G3A_B2A2- | 
[V:5] G,2F,E,D,4 | 
[V:6] z8 | 
[V:1] A_Bc2d4 | 
[V:2] z4D4 | 
[V:3] d2c4B2 | 
[V:4] A2G4F2 | 
[V:5] F,2E,2D,4 | 
[V:6] z8 | 
[V:1] G4c4- | 
[V:2] E3FG2A2- | 
[V:3] c8- | 
[V:4] G4E2F2 | 
[V:5] C,8- | 
[V:6] z2C,4F,,2- | 
[V:1] c4c4 | 
[V:2] AGF4E2 | 
[V:3] c8 | 
[V:4] A4G4 | 
[V:5] C,8 | 
[V:6] F,,G,,A,,B,,C,4 | 
[V:1] A3Bc2d2- | 
[V:2] F4C2F2 | 
[V:3] z8 | 
[V:4] F8 | 
[V:5] z8 | 
[V:6] F,,3G,,A,,2B,,2 | 
[V:1] d2c3AB2 | 
[V:2] E3CD4 | 
[V:3] z8 | 
[V:4] z4G4- | 
[V:5] z8 | 
[V:6] C,4G,,4 | 
[V:1] c4G4 | 
[V:2] E4E2C2- | 
[V:3] c4c4 | 
[V:4] G4G4 | 
[V:5] C,8 | 
[V:6] z2C,3D,E,F, | 
[V:1] z2G2A2F2- | 
[V:2] CDE2C2F2- | 
[V:3] G2c3BAG | 
[V:4] E4A4- | 
[V:5] C,4F,4- | 
[V:6] G,2E,2F,3E, | 
[V:1] FGA3Bc2- | 
[V:2] F2EDE4 | 
[V:3] F2c3BAG | 
[V:4] A4c4 | 
[V:5] F,4C,4 | 
[V:6] D,2C,2A,,4 | 
[V:1] cBAG^F4 | 
[V:2] z4D4- | 
[V:3] A4A4 | 
[V:4] d8 | 
[V:5] F,3E,D,4- | 
[V:6] D,8 | 
[V:1] G8- | 
[V:2] D4G,4 | 
[V:3] z4G4- | 
[V:4] B8- | 
[V:5] D,8- | 
[V:6] G,,8 | 
[V:1] G8- | 
[V:2] D8 | 
[V:3] G8- | 
[V:4] B8- | 
[V:5] D,8- | 
[V:6] G,,8- | 
[V:1] G8 ||  
[V:2] D8 ||  
[V:3] G8 ||  
[V:4] B8 ||  
[V:5] D,8 ||  
[V:6] G,,8 ||  
[V:1]  [K:C] [K:clef=treble][M:4/2]z8 | 
[V:2]  [K:C] [K:clef=treble][M:4/2]z8 | 
[V:3]  [K:C] [K:clef=treble-8][M:4/2]z8 | 
[V:4]  [K:C] [K:clef=treble-8][M:4/2]z8 | 
[V:5]  [K:C] [K:clef=bass][M:4/2]z8 | 
[V:6]  [K:C] [K:clef=bass][M:4/2]G,3F,G,2A,2 | 
[V:1] z8 | 
[V:2] z8 | 
[V:3] z8 | 
[V:4] z8 | 
[V:5] C3B,C2D2 | 
[V:6] A,2G,F,E,2D,2- | 
[V:1] z8 | 
[V:2] z8 | 
[V:3] z8 | 
[V:4] z8 | 
[V:5] D2CB,A,2G,2- | 
[V:6] D,2G,2F,2E,D, | 
[V:1] z8 | 
[V:2] z8 | 
[V:3] z8 | 
[V:4] z8 | 
[V:5] G,2C2B,2A,G, | 
[V:6] E,4D,2G,2 | 
[V:1] z8 | 
[V:2] z8 | 
[V:3] z8 | 
[V:4] z8 | 
[V:5] A,4G,2C2 | 
[V:6] F,2E,D,E,4 | 
[V:1] z8 | 
[V:2] z8 | 
[V:3] z8 | 
[V:4] z8 | 
[V:5] B,2A,G,A,4 | 
[V:6] D,2G,4F,2 | 
[V:1] z8 | 
[V:2] z8 | 
[V:3] z8 | 
[V:4] z8 | 
[V:5] G,2C4B,2 | 
[V:6] E,2A,4G,2 | 
[V:1] z8 | 
[V:2] z8 | 
[V:3] z8 | 
[V:4] z8 | 
[V:5] A,2D4C2 | 
[V:6] A,2F,2E,4 | 
[V:1] z8 | 
[V:2] z8 | 
[V:3] z8 | 
[V:4] z8 | 
[V:5] D2B,2A,4 | 
[V:6] D,8 | 
[V:1] z8 | 
[V:2] z8 | 
[V:3] z8 | 
[V:4] z8 | 
[V:5] G,8 | 
[V:6] z4G,4- | 
[V:1] z8 | 
[V:2] z8 | 
[V:3] z8 | 
[V:4] z8 | 
[V:5] z4C4- | 
[V:6] G,2E,6 | 
[V:1] z8 | 
[V:2] z8 | 
[V:3] z8 | 
[V:4] z8 | 
[V:5] C2A,6 | 
[V:6] C,6A,,2- | 
[V:1] z8 | 
[V:2] z8 | 
[V:3] z8 | 
[V:4] z8 | 
[V:5] F,6D,2- | 
[V:6] A,,4A,4- | 
[V:1] z8 | 
[V:2] z8 | 
[V:3] z8 | 
[V:4] z8 | 
[V:5] D,4D4- | 
[V:6] A,2F,6 | 
[V:1] z8 | 
[V:2] z8 | 
[V:3] z8 | 
[V:4] z8 | 
[V:5] D2_B,6 | 
[V:6] D,8 | 
[V:1] z8 | 
[V:2] z8 | 
[V:3] z8 | 
[V:4] z8 | 
[V:5] G,8 | 
[V:6] z2G,4F,E, | 
[V:1] z8 | 
[V:2] z8 | 
[V:3] z8 | 
[V:4] z8 | 
[V:5] z2C4B,A, | 
[V:6] D,2E,4D,2 | 
[V:1] z8 | 
[V:2] z8 | 
[V:3] z8 | 
[V:4] z8 | 
[V:5] G,2A,4G,2 | 
[V:6] E,2C,2B,,4 | 
[V:1] z8 | 
[V:2] z8 | 
[V:3] z8 | 
[V:4] z8 | 
[V:5] A,2F,2E,4 | 
[V:6] A,,8 | 
[V:1] z8 | 
[V:2] z8 | 
[V:3] z8 | 
[V:4] z8 | 
[V:5] D,8 | 
[V:6] z4A,4 | 
[V:1] z8 | 
[V:2] z8 | 
[V:3] z8 | 
[V:4] z8 | 
[V:5] z4D4 | 
[V:6] A,4D,4 | 
[V:1] z8 | 
[V:2] z8 | 
[V:3] z8 | 
[V:4] z8 | 
[V:5] D4G,4 | 
[V:6] G,8 | 
[V:1] z8 | 
[V:2] z8 | 
[V:3] z8 | 
[V:4] z8 | 
[V:5] C8 | 
[V:6] (3:2:6C,3D,E,2F,2E,2F,2 | 
[V:1] z8 | 
[V:2] z8 | 
[V:3] z8 | 
[V:4] z8 | 
[V:5] (3:2:6F,3G,A,2_B,2A,2B,2 | 
[V:6] (3:2:6D,3E,F,2G,2F,2G,2 | 
[V:1] z8 | 
[V:2] z8 | 
[V:3] z8 | 
[V:4] z8 | 
[V:5] (3:2:6G,3A,_B,2C2B,2C2 | 
[V:6] (3:2:6E,3F,G,2A,2G,2A,2 | 
[V:1] z8 | 
[V:2] z8 | 
[V:3] z8 | 
[V:4] z8 | 
[V:5] (3:2:6A,3_B,C2D2C2D2 | 
[V:6] F,4D,4 | 
[V:1] z8 | 
[V:2] z8 | 
[V:3] z8 | 
[V:4] z8 | 
[V:5] _B,4G,4 | 
[V:6] z2G,3F,E,D, | 
[V:1] z8 | 
[V:2] z8 | 
[V:3] z8 | 
[V:4] z8 | 
[V:5] z2C3_B,A,G, | 
[V:6] C,4(3C,2D,2E,2 | 
[V:1] z8 | 
[V:2] z8 | 
[V:3] z8 | 
[V:4] z8 | 
[V:5] F,4(3F,2G,2A,2 | 
[V:6] A,,2D,4C,2 | 
[V:1] z8 | 
[V:2] z8 | 
[V:3] z8 | 
[V:4] z8 | 
[V:5] D,2G,4^F,2 | 
[V:6] D,2G,,2A,,4 | 
[V:1] z8 ||  
[V:2] z8 ||  
[V:3] z8 ||  
[V:4] z8 ||  
[V:5] G,8 ||  
[V:6] G,,8 ||  
[V:1]  [K:C] [K:clef=treble][M:3/1]z12 | 
[V:2]  [K:C] [K:clef=treble][M:3/1]G8G4 | 
[V:3]  [K:C] [K:clef=treble-8][M:3/1]z12 | 
[V:4]  [K:C] [K:clef=treble-8][M:3/1]G8G4 | 
[V:5]  [K:C] [K:clef=bass][M:3/1]z12 | 
[V:6]  [K:C] [K:clef=bass][M:3/1]G,,6A,,2B,,4 | 
[V:1] z12 | 
[V:2] E6F2G4 | 
[V:3] z12 | 
[V:4] A4B8 | 
[V:5] z12 | 
[V:6] C,4B,,2A,,2B,,4 | 
[V:1] c8c4 | 
[V:2] C4E6A,2 | 
[V:3] c8c4 | 
[V:4] c8A4- | 
[V:5] C,6D,2E,4 | 
[V:6] A,,8A,,4- | 
[V:1] A6B2c4 | 
[V:2] D8C4 | 
[V:3] d4e8 | 
[V:4] A12 | 
[V:5] F,4E,2D,2E,4 | 
[V:6] A,,4A,,8 | 
[V:1] F4A6D2 | 
[V:2] D8D4 | 
[V:3] f8d4- | 
[V:4] A12 | 
[V:5] D,8D,4- | 
[V:6] z12 | 
[V:1] G8^F4 | 
[V:2] B,4A,8 | 
[V:3] d12 | 
[V:4] z12 | 
[V:5] D,4D,8 | 
[V:6] z12 | 
[V:1] G8G4 | 
[V:2] G,12 | 
[V:3] d12 | 
[V:4] G8G4- | 
[V:5] z12 | 
[V:6] G,,6A,,2B,,4 | 
[V:1] E4D8 | 
[V:2] z12 | 
[V:3] z12 | 
[V:4] G4G8 | 
[V:5] z12 | 
[V:6] C,4B,,2A,,2B,,4 | 
[V:1] C12 | 
[V:2] z12 | 
[V:3] c8c4- | 
[V:4] A12- | 
[V:5] C,6D,2E,4 | 
[V:6] A,,8A,,4- | 
[V:1] z12 | 
[V:2] z4z4E4 | 
[V:3] c4c8 | 
[V:4] A8A4 | 
[V:5] F,4E,2D,2E,4 | 
[V:6] A,,4A,,8 | 
[V:1] z12 | 
[V:2] F8F4- | 
[V:3] d12- | 
[V:4] F6G2A4 | 
[V:5] D,8D,4- | 
[V:6] z12 | 
[V:1] z4z4A4 | 
[V:2] F4F8 | 
[V:3] d8d4 | 
[V:4] _B4A2G2A4 | 
[V:5] D,4D,8 | 
[V:6] z12 | 
[V:1] _B8B4- | 
[V:2] G8G4- | 
[V:3] _B6c2d4 | 
[V:4] G8G4- | 
[V:5] z12 | 
[V:6] G,,8G,,4- | 
[V:1] B4_B8 | 
[V:2] G4G8 | 
[V:3] _e4d2c2d4 | 
[V:4] G4G8 | 
[V:5] z12 | 
[V:6] G,,4G,,8 | 
[V:1] c8c4- | 
[V:2] E8A4- | 
[V:3] c8c4- | 
[V:4] C4A6G2 | 
[V:5] C,8C,4- | 
[V:6] C,8A,,4- | 
[V:1] c4c8 | 
[V:2] A4A8 | 
[V:3] c4c8 | 
[V:4] F4E8 | 
[V:5] C,4C,8 | 
[V:6] A,,4A,,8 | 
[V:1] A8d4- | 
[V:2] F4A6G2 | 
[V:3] F4d6c2 | 
[V:4] D6E2F4 | 
[V:5] F,8D,4- | 
[V:6] D,8B,,4 | 
[V:1] d4d8 | 
[V:2] G6^F2F4 | 
[V:3] B4A8 | 
[V:4] G4A8 | 
[V:5] D,4D,8 | 
[V:6] G,,4D,8 | 
[V:1] B4d6c2 | 
[V:2] G12 | 
[V:3] G6A2B4 | 
[V:4] z12 | 
[V:5] G,8E,4 | 
[V:6] G,,12 | 
[V:1] c6B2B4 | 
[V:2] z4z4D4 | 
[V:3] c4d8 | 
[V:4] z12 | 
[V:5] C,4G,8 | 
[V:6] z12 | 
[V:1] c12 | 
[V:2] E8E4 | 
[V:3] z12 | 
[V:4] G8E4 | 
[V:5] C,12 | 
[V:6] C,6D,2E,2C,2 | 
[V:1] z4z4G4 | 
[V:2] F6E2D4 | 
[V:3] z12 | 
[V:4] A6GFG4 | 
[V:5] z12 | 
[V:6] D,4B,,8 | 
[V:1] A8A4 | 
[V:2] C12 | 
[V:3] c8A4 | 
[V:4] C12 | 
[V:5] F,6G,2A,2F,2 | 
[V:6] A,,12 | 
[V:1] _B6A2G4 | 
[V:2] z12 | 
[V:3] d6cBc4 | 
[V:4] z12 | 
[V:5] G,4E,8 | 
[V:6] z12 | 
[V:1] F12 | 
[V:2] A8F4 | 
[V:3] F12 | 
[V:4] F6G2A2_B2 | 
[V:5] D,12 | 
[V:6] D,6E,2F,2D,2 | 
[V:1] z12 | 
[V:2] G6F2E4 | 
[V:3] z12 | 
[V:4] G4E6F2 | 
[V:5] z12 | 
[V:6] E,4C,8 | 
[V:1] d8B4 | 
[V:2] D12 | 
[V:3] B6c2d2e2 | 
[V:4] G12 | 
[V:5] G,6A,2B,2G,2 | 
[V:6] G,,12 | 
[V:1] c6B2A4 | 
[V:2] z12 | 
[V:3] c4A6B2 | 
[V:4] z12 | 
[V:5] A,4F,8 | 
[V:6] z12 | 
[V:1] G12 | 
[V:2] G4G4E4 | 
[V:3] c12 | 
[V:4] E8E4 | 
[V:5] C,12 | 
[V:6] G,8C,4 | 
[V:1] z12 | 
[V:2] F6E2D4 | 
[V:3] z12 | 
[V:4] D4F4G4 | 
[V:5] z12 | 
[V:6] D,4B,,8 | 
[V:1] c4c4A4 | 
[V:2] C4E6D2 | 
[V:3] A8A4 | 
[V:4] C8C4 | 
[V:5] C8F,4 | 
[V:6] A,,12 | 
[V:1] _B6A2G4 | 
[V:2] D6C2C4 | 
[V:3] G4B4c4 | 
[V:4] D4E8 | 
[V:5] G,4E,8 | 
[V:6] z12 | 
[V:1] F4A6G2 | 
[V:2] D12- | 
[V:3] F8F4 | 
[V:4] F4D4d4 | 
[V:5] D,12- | 
[V:6] D,8B,,4 | 
[V:1] G6^F2F4 | 
[V:2] D12- | 
[V:3] G4A8 | 
[V:4] B4A8 | 
[V:5] D,12- | 
[V:6] G,,4D,8 | 
[V:1] G12 ||  
[V:2] D12 ||  
[V:3] B12 ||  
[V:4] G12 ||  
[V:5] D,12 ||  
[V:6] G,,12 ||  
[V:1]  [K:C] [K:clef=treble][M:2/1]z8 | 
[V:2]  [K:C] [K:clef=treble][M:2/1]z8 | 
[V:3]  [K:C] [K:clef=treble-8][M:2/1]z8 | 
[V:4]  [K:C] [K:clef=treble-8][M:2/1]z8 | 
[V:5]  [K:C] [K:clef=bass][M:2/1]z8 | 
[V:6]  [K:C] [K:clef=bass][M:2/1]G,4E,2F,2 | 
[V:1] z8 | 
[V:2] z8 | 
[V:3] z8 | 
[V:4] z8 | 
[V:5] z4C4 | 
[V:6] G,4A,3G, | 
[V:1] z8 | 
[V:2] z8 | 
[V:3] z8 | 
[V:4] z8 | 
[V:5] A,2B,2C4 | 
[V:6] F,2E,D,E,4 | 
[V:1] z8 | 
[V:2] F4D2E2 | 
[V:3] z8 | 
[V:4] z8 | 
[V:5] D3CB,2A,G, | 
[V:6] D,8 | 
[V:1] z4B4 | 
[V:2] F4G3F | 
[V:3] z8 | 
[V:4] z8 | 
[V:5] A,4G,4- | 
[V:6] z8 | 
[V:1] G2A2B4 | 
[V:2] E2DCD4 | 
[V:3] z8 | 
[V:4] z8 | 
[V:5] G,4z4 | 
[V:6] z8 | 
[V:1] c3BA2GF | 
[V:2] C2E4D2- | 
[V:3] z8 | 
[V:4] z8 | 
[V:5] z8 | 
[V:6] z2C,4D,2 | 
[V:1] G4F2A2- | 
[V:2] D2^C2D4- | 
[V:3] z8 | 
[V:4] z8 | 
[V:5] z4z2F,2- | 
[V:6] E,4D,4- | 
[V:1] A2G4^F2 | 
[V:2] D4z4 | 
[V:3] z8 | 
[V:4] z8 | 
[V:5] F,2G,2A,4 | 
[V:6] D,4D,4 | 
[V:1] G8 | 
[V:2] z8 | 
[V:3] z8 | 
[V:4] z8 | 
[V:5] G,8 | 
[V:6] E,2E,3D,C,2 | 
[V:1] z8 | 
[V:2] z8 | 
[V:3] z8 | 
[V:4] z8 | 
[V:5] G,4A,2A,2- | 
[V:6] B,,4A,,3B,, | 
[V:1] z8 | 
[V:2] z8 | 
[V:3] z8 | 
[V:4] z8 | 
[V:5] A,G,F,2E,4 | 
[V:6] C,2D,4C,2 | 
[V:1] z8 | 
[V:2] z8 | 
[V:3] z8 | 
[V:4] z8 | 
[V:5] D,3E,F,2G,2- | 
[V:6] F,3E,D,2C,B,, | 
[V:1] z8 | 
[V:2] z4D4- | 
[V:3] z8 | 
[V:4] z8 | 
[V:5] G,2F,2_B,3A, | 
[V:6] A,,4G,,4- | 
[V:1] z8 | 
[V:2] D4D4 | 
[V:3] z8 | 
[V:4] z8 | 
[V:5] G,2F,E,D,4 | 
[V:6] G,,4z4 | 
[V:1] G8 | 
[V:2] E2E3DC2 | 
[V:3] z8 | 
[V:4] z8 | 
[V:5] C,8 | 
[V:6] z8 | 
[V:1] G4A2A2- | 
[V:2] B,4A,3B, | 
[V:3] z8 | 
[V:4] z8 | 
[V:5] z8 | 
[V:6] z8 | 
[V:1] AGF2E4 | 
[V:2] C2D4C2 | 
[V:3] z8 | 
[V:4] z8 | 
[V:5] z8 | 
[V:6] z8 | 
[V:1] D3EF2G2- | 
[V:2] F3ED2CB, | 
[V:3] z8 | 
[V:4] z8 | 
[V:5] z8 | 
[V:6] z8 | 
[V:1] G2F2_B3A | 
[V:2] A,4G,4 | 
[V:3] z8 | 
[V:4] z8 | 
[V:5] z8 | 
[V:6] z4G,,3A,, | 
[V:1] G2FED4 | 
[V:2] z8 | 
[V:3] z8 | 
[V:4] z8 | 
[V:5] z8 | 
[V:6] B,,2C,4B,,2 | 
[V:1] C4z4 | 
[V:2] z8 | 
[V:3] z8 | 
[V:4] z8 | 
[V:5] C,3D,E,2F,2- | 
[V:6] C,D,E,F,E,2D,2- | 
[V:1] z8 | 
[V:2] z4D4 | 
[V:3] z8 | 
[V:4] z8 | 
[V:5] F,2E,2F,G,A,_B, | 
[V:6] D,2C,2D,4- | 
[V:1] z8 | 
[V:2] F3GA2A2 | 
[V:3] z8 | 
[V:4] z8 | 
[V:5] A,2G,4^F,2 | 
[V:6] D,2C,B,,A,,4 | 
[V:1] G4B3c | 
[V:2] D6E2 | 
[V:3] z8 | 
[V:4] z8 | 
[V:5] G,6F,E, | 
[V:6] G,,8 | 
[V:1] d2d2G4- | 
[V:2] F4G2E2- | 
[V:3] z8 | 
[V:4] z8 | 
[V:5] D,4C,4- | 
[V:6] z8 | 
[V:1] G2A2B4 | 
[V:2] E2DCD2E2 | 
[V:3] z8 | 
[V:4] z8 | 
[V:5] C,4z4 | 
[V:6] z8 | 
[V:1] c2A4GF | 
[V:2] A,4z2A,2 | 
[V:3] z8 | 
[V:4] z8 | 
[V:5] z8 | 
[V:6] z8 | 
[V:1] G2A2D4 | 
[V:2] B,2C2D4 | 
[V:3] z8 | 
[V:4] z8 | 
[V:5] z8 | 
[V:6] z4z2D,2- | 
[V:1] z2D2E2F2 | 
[V:2] B,4A,4 | 
[V:3] z8 | 
[V:4] z8 | 
[V:5] z8 | 
[V:6] D,2C,B,,C,2D,2 | 
[V:1] G4E4 | 
[V:2] G,4z4 | 
[V:3] z8 | 
[V:4] z8 | 
[V:5] z2G,4F,E, | 
[V:6] E,2E,3D,C,2 | 
[V:1] D4C4 | 
[V:2] z2B,2CDEF | 
[V:3] z8 | 
[V:4] z8 | 
[V:5] F,2G,2A,2A,2- | 
[V:6] B,,4A,,4 | 
[V:1] z4z2E2 | 
[V:2] E2D4^C2 | 
[V:3] z8 | 
[V:4] z8 | 
[V:5] A,G,F,2E,4 | 
[V:6] z8 | 
[V:1] FGA_BA2G2- | 
[V:2] D8 | 
[V:3] z8 | 
[V:4] z8 | 
[V:5] D,4z4 | 
[V:6] D,4F,2G,2 | 
[V:1] G2^F2G4- | 
[V:2] z8 | 
[V:3] z8 | 
[V:4] z8 | 
[V:5] z4G,4 | 
[V:6] A,4G,2G,2- | 
[V:1] G4z4 | 
[V:2] z8 | 
[V:3] z8 | 
[V:4] z8 | 
[V:5] B,2C2D4 | 
[V:6] G,2F,E,F,4 | 
[V:1] z8 | 
[V:2] z8 | 
[V:3] z8 | 
[V:4] z8 | 
[V:5] C2C4_B,A, | 
[V:6] E,C,E,F,G,2A,2- | 
[V:1] z8 | 
[V:2] z4A4 | 
[V:3] z8 | 
[V:4] z8 | 
[V:5] _B,4A,F,A,B, | 
[V:6] A,2G,2A,2A,2 | 
[V:1] z8 | 
[V:2] A2A2G4 | 
[V:3] z8 | 
[V:4] z8 | 
[V:5] C2D4C2 | 
[V:6] A,2G,F,E,4 | 
[V:1] d4d2d2 | 
[V:2] F6D2 | 
[V:3] z8 | 
[V:4] z8 | 
[V:5] D2D2D2CB, | 
[V:6] D,8 | 
[V:1] c4B4- | 
[V:2] E2F2G3F | 
[V:3] z8 | 
[V:4] z8 | 
[V:5] A,4G,4 | 
[V:6] z8 | 
[V:1] B2G2A2B2 | 
[V:2] D2E2DCD2 | 
[V:3] z8 | 
[V:4] z8 | 
[V:5] z8 | 
[V:6] z8 | 
[V:1] c3BG2A2 | 
[V:2] E2DCDCB,A, | 
[V:3] z8 | 
[V:4] z8 | 
[V:5] z8 | 
[V:6] z8 | 
[V:1] GFG2A2GF | 
[V:2] B,4C4 | 
[V:3] z8 | 
[V:4] z8 | 
[V:5] z8 | 
[V:6] z4A,,B,,C,D, | 
[V:1] GFEDE4 | 
[V:2] z8 | 
[V:3] z8 | 
[V:4] z8 | 
[V:5] z8 | 
[V:6] E,2D,4C,2 | 
[V:1] F4z4 | 
[V:2] z8 | 
[V:3] z8 | 
[V:4] z8 | 
[V:5] D,E,F,G,A,2G,2- | 
[V:6] D,2A,,2C,2B,,2 | 
[V:1] z8 | 
[V:2] z4DEFG | 
[V:3] z8 | 
[V:4] z8 | 
[V:5] G,2F,2G,2D,2 | 
[V:6] A,,4z2A,2 | 
[V:1] z8 | 
[V:2] A2G4^F2 | 
[V:3] z8 | 
[V:4] z8 | 
[V:5] F,2E,2D,4 | 
[V:6] F,2G,2A,4 | 
[V:1] GABcd2c2- | 
[V:2] G6G2 | 
[V:3] z8 | 
[V:4] z8 | 
[V:5] z2D2B,2C2 | 
[V:6] G,8- | 
[V:1] c2B2c4- | 
[V:2] G4E3F | 
[V:3] z8 | 
[V:4] z8 | 
[V:5] D4C4- | 
[V:6] G,4C,3D, | 
[V:1] c2c2c4 | 
[V:2] G2F3EC2 | 
[V:3] z8 | 
[V:4] z8 | 
[V:5] C8 | 
[V:6] E,2F,3G,A,2 | 
[V:1] A3Bc2_B2- | 
[V:2] D2F2E2DC | 
[V:3] z8 | 
[V:4] z8 | 
[V:5] F,3G,A,2_B,2- | 
[V:6] D,4z4 | 
[V:1] BAF2G2_B2 | 
[V:2] D4C2GF | 
[V:3] z8 | 
[V:4] z8 | 
[V:5] B,CD2G,4 | 
[V:6] D,4E,4 | 
[V:1] A2GFG4 | 
[V:2] EDD4^C2 | 
[V:3] z8 | 
[V:4] z8 | 
[V:5] z4G,4 | 
[V:6] C,2D,2E,4 | 
[V:1] F8 ||  
[V:2] D8 ||  
[V:3] z8 ||  
[V:4] z8 ||  
[V:5] A,8 ||  
[V:6] D,8 ||  



